X:22
T:Danse Napolitaine
C:Tchaikovsky
N:TablEdited by Kim Davis
L:1/8
Q:1/4=101
M:2/4
K:D
z4 | za/b/ d'/c'/b/a/ | c'2 c'/4c'/4c'/4c'/4c'/4c'/4c'/4c'/4 | c'/4c'/4c'/b/c'/ d'/c'/b/c'/ | 
b2 a/4a/4a/4a/4a/4a/4a/4a/4 | a/4a/4a/a/a/ b/a/g/f/ | a2 g/4g/4g/4g/4g/4g/4g/4g/4 | 
g/4g/4g/g/g/ a/g/f/e/ | f2 d/4d/4d/4d/4d/4d/4d/4d/4 | d/4d/4d/4d/4d/4d/4d/4d/4 d/4d/4d/4d/4d/4d/4d/4d/4 | 
d/4d/4d7/2 | za/b/ d'/c'/b/a/ | c'2 c'/4c'/4c'/4c'/4c'/4c'/4c'/4c'/4 | z/4c'/4c'/b/c'/ d'/c'/b/c'/ | 
b2 a/4a/4a/4a/4a/4a/a/4 | a/4a/4a/a/a/ b/a/g/f/ | a2 g/4g/4g/4g/4g/4g/4g/4g/4 | 
g/4g/4g/g/g/ a/g/f | d/4d/4d/4d/4d/4d/4d/4d/4 d/4d/4d/4d/4d/4d/4d/4d/4 | d/4d/4d/4d/4d/4d3/4 d3/2d/ | 
b2 b/4b/4b/4b/4b/4b/4b/4b/4 | b/4b/4b/c'/d'/ e'/d'/c'/b/ | b2 a/4a/4a/4a/4a/4a/4a/4a/4 | 
a/4a/4a/^g/a/ g/a/c'/b/ | a2 g/4g/4g/4g/4g/4g/4g/4g/4 | g/4g/4g/f/g/ f/g/b/a/ | 
d/4d/4d/4d/4d/4d/4d/4d/4 d/4d/4d/4d/4d/4d/4d/4d/4 | d/4d/4d/4d/4d/4d3/4 d3/2d/ | 
b2 b/4b/4b/4b/4b/4b/4b/4b/4 | b/4b/4b/c'/d'/ e'/d'/c'/b/ | b2 a/4a/4a/4a/4a/4a/4a/4a/4 | 
a/4a/4a/^g/a/ g/a/c'/b/ | a2 g/4g/4g/4g/4g/g/4g/4 | g/4g/4g/f/g/ f/g/b/a/ | d/4d/4d/4d/4d/4d/4d/4d/4 d/4d/4d/4d/4d/4d/4d/4d/4 | 
d/4d/4d/4d/4d/4d/4d/4dz/4d' | zd' bd' | bd' e'/d'/c'/b/ | b/a/a/a/ b/a/a/a/ | 
b/a/a/a/ b/a/g/f/ | a/g/g/g/ a/g/g/g/ | a/g/g/g/ a/g/f/e/ | d/d/e/f/ g/a/b/c'/ | 
d'3d' | zd' bd' | bd' e'/d'/c'/b/ | b/a/a/a/ b/a/a/a/ | b/a/a/a/ b/a/g/f/ | a/g/g/g/ a/g/g/g/ | 
a/g/g/g/ a/g/f/e/ | d/d/e/f/ g/a/b/c'/ | d'/d'/e'/f'/ g'/a'/b'/c''/ | d''2 d''2 | 
[d'4d4] | z4 | 
 

